X:1
T:New Castle Troop
L:1/16
M:3/8
I:linebreak $
K:D
V:1 treble 
V:1
 A2 | d2d2d2 | e2efge | f2d2d2 | edcBA2 | d2d2d2 | e2efge | f2dfec | d4 :: (cd) | e2egfd |$ %11
 e2egfd | e2egfd | e2dcBA | a2egfd | a2egfd | a2egfe | d4 :: a2 | a4 f2 | f4 d2 | e2efge |$ %22
 f2d2a2 | a4 f2 | f4 e2 | e2edef | d4 :: (ef) | g2gefd | c2cedf | g2gdfd | e4 a2 | a4 f2 | f4 d2 | %34
 e2edef |$ d4 :| x6!D.C.! | %37
